fs/text_sort_ascending_20_regular.svg

<svg viewBox="0 0 20 20" fill="none" xmlns="http://www.w3.org/2000/svg" height="1em" width="1em">
  <path d="M6.00013 2C6.20571 2 6.39034 2.12583 6.46551 2.31717L9.21551 9.31717C9.31648 9.57419 9.18998 9.8644 8.93296 9.96538C8.67594 10.0663 8.38573 9.93985 8.28476 9.68283L7.62365 8H4.37662L3.71551 9.68283C3.61454 9.93985 3.32433 10.0663 3.06731 9.96538C2.81029 9.8644 2.68379 9.57419 2.78476 9.31717L5.53476 2.31717C5.60993 2.12583 5.79456 2 6.00013 2ZM7.23079 7L6.00013 3.86742L4.76948 7H7.23079ZM15 2.5C15 2.22386 14.7761 2 14.5 2C14.2239 2 14 2.22386 14 2.5V16.2929L11.8536 14.1464C11.6583 13.9512 11.3417 13.9512 11.1464 14.1464C10.9512 14.3417 10.9512 14.6583 11.1464 14.8536L14.1464 17.8536C14.3417 18.0488 14.6583 18.0488 14.8536 17.8536L17.8536 14.8536C18.0488 14.6583 18.0488 14.3417 17.8536 14.1464C17.6583 13.9512 17.3417 13.9512 17.1464 14.1464L15 16.2929V2.5ZM2.5 11C2.77614 11 3 11.2239 3 11.5V17H5.5V13.5C5.5 13.2239 5.72386 13 6 13C6.27614 13 6.5 13.2239 6.5 13.5V17H9V11.5C9 11.2239 9.22386 11 9.5 11C9.77614 11 10 11.2239 10 11.5V17.5C10 17.7761 9.77614 18 9.5 18H2.5C2.22386 18 2 17.7761 2 17.5V11.5C2 11.2239 2.22386 11 2.5 11Z" fill="#212121"/>
</svg>

<svg viewBox="0 0 20 20" fill="none" xmlns="http://www.w3.org/2000/svg" height="1em" width="1em">
  <path d="M6 2a.5.5 0 0 1 .466.317l2.75 7a.5.5 0 0 1-.931.366L7.624 8H4.377l-.661 1.683a.5.5 0 0 1-.931-.366l2.75-7A.5.5 0 0 1 6 2Zm1.23 5L6 3.867 4.77 7h2.46ZM15 2.5a.5.5 0 0 0-1 0v13.793l-2.146-2.147a.5.5 0 0 0-.708.708l3 3a.5.5 0 0 0 .708 0l3-3a.5.5 0 0 0-.708-.708L15 16.293V2.5ZM2.5 11a.5.5 0 0 1 .5.5V17h2.5v-3.5a.5.5 0 0 1 1 0V17H9v-5.5a.5.5 0 0 1 1 0v6a.5.5 0 0 1-.5.5h-7a.5.5 0 0 1-.5-.5v-6a.5.5 0 0 1 .5-.5Z" fill="#212121"/>
</svg>
